build/img/icon-youtube.svg

<svg width="24" height="24" viewBox="0 0 24 24" fill="none" xmlns="http://www.w3.org/2000/svg">
<g clip-path="url(#clip0)">
<path d="M23.5055 6.23876C23.2288 5.21063 22.4182 4.4002 21.3903 4.12335C19.5122 3.60938 11.9998 3.60938 11.9998 3.60938C11.9998 3.60938 4.48753 3.60938 2.60943 4.10376C1.60125 4.38043 0.770871 5.21081 0.4942 6.23876C0 8.11668 0 12.0113 0 12.0113C0 12.0113 0 15.9255 0.4942 17.7839C0.771054 18.8118 1.58148 19.6224 2.60961 19.8993C4.50731 20.4133 12 20.4133 12 20.4133C12 20.4133 19.5122 20.4133 21.3903 19.9189C22.4184 19.6422 23.2288 18.8316 23.5057 17.8037C23.9999 15.9255 23.9999 12.0311 23.9999 12.0311C23.9999 12.0311 24.0197 8.11668 23.5055 6.23876Z" fill="#FF0000"/>
<path d="M9.60742 15.6094L15.8544 12.0114L9.60742 8.41333V15.6094Z" fill="white"/>
</g>
<defs>
<clipPath id="clip0">
<rect width="24" height="24" fill="white"/>
</clipPath>
</defs>
</svg>

<svg width="24" height="24" fill="none" xmlns="http://www.w3.org/2000/svg"><g clip-path="url(#clip0)"><path d="M23.506 6.239a3.007 3.007 0 00-2.116-2.116C19.512 3.61 12 3.61 12 3.61s-7.512 0-9.39.495A3.068 3.068 0 00.493 6.239C0 8.117 0 12.01 0 12.01s0 3.915.494 5.773a3.008 3.008 0 002.116 2.115c1.897.514 9.39.514 9.39.514s7.512 0 9.39-.494a3.007 3.007 0 002.116-2.115C24 15.926 24 12.03 24 12.03s.02-3.914-.494-5.792z" fill="red"/><path d="M9.607 15.61l6.247-3.599-6.247-3.598v7.196z" fill="#fff"/></g><defs><clipPath id="clip0"><path fill="#fff" d="M0 0h24v24H0z"/></clipPath></defs></svg>
